icon-themes/breeze_svg/cmd/lc_togglelegend.svg

<svg viewBox="0 0 24 24" xmlns="http://www.w3.org/2000/svg"><path d="m5 3v14h-1v1h1v1h1v-1h14v-1h-3v-5h-4v5h-2v-14h-4v14h-1v-14z" fill="#4d4d4d"/><path d="m12 5v6h8v-6zm1 1h6v4h-6z" fill="#1d99f3"/></svg>

<svg xmlns="http://www.w3.org/2000/svg" viewBox="0 0 24 24">
 <path 
     style="fill:#4d4d4d" 
     d="M 5 3 L 5 17 L 4 17 L 4 18 L 5 18 L 5 19 L 6 19 L 6 18 L 20 18 L 20 17 L 17 17 L 17 12 L 13 12 L 13 17 L 11 17 L 11 3 L 7 3 L 7 17 L 6 17 L 6 3 L 5 3 z "
     />
 <path 
     style="fill:#1d99f3" 
     d="M 12 5 L 12 11 L 20 11 L 20 5 L 12 5 z M 13 6 L 19 6 L 19 10 L 13 10 L 13 6 z "
     />
 </svg>
